.gitbook/assets/VSCode (1).svg

<svg xmlns="http://www.w3.org/2000/svg" width="404" height="251" fill="none" viewBox="0 0 404 251"><path fill="#7C92FF" d="M0 0h404v251H0z"/><path fill="#013234" d="m247 162-22.125 9-36.375-36-22.875 18-8.625-4.875v-44.25l8.625-4.5 22.875 18L224.875 81 247 90v72Zm-46.125-36 23.625 18.75v-37.5L200.875 126Zm-35.25 13.875L179.5 126 166 112.125l-.375 27.75Z"/></svg>

<svg width="404" height="251" viewBox="0 0 404 251" fill="none" xmlns="http://www.w3.org/2000/svg">
<rect width="404" height="251" fill="#7C92FF"/>
<path d="M247 162L224.875 171L188.5 135L165.625 153L157 148.125V103.875L165.625 99.375L188.5 117.375L224.875 81L247 90V162ZM200.875 126L224.5 144.75V107.25L200.875 126ZM165.625 139.875L179.5 126L166 112.125L165.625 139.875Z" fill="#013234"/>
</svg>
